assets/Clown face/Flat/clown_face_flat.svg

<svg width="32" height="32" viewBox="0 0 32 32" fill="none" xmlns="http://www.w3.org/2000/svg">
<path d="M15.9989 1C11.0952 1 7.313 2.65419 4.76342 5.42276C2.22626 8.17785 1 11.9378 1 15.9989C1 20.06 2.22626 23.8199 4.76342 26.575C7.313 29.3436 11.0952 30.9978 15.9989 30.9978C20.9026 30.9978 24.6848 29.3436 27.2343 26.575C29.7715 23.8199 30.9978 20.06 30.9978 15.9989C30.9978 11.9378 29.7715 8.17785 27.2343 5.42276C24.6848 2.65419 20.9026 1 15.9989 1Z" fill="#F7A7B8"/>
<path d="M11 7C12.6569 7 14 5.65685 14 4C14 2.34315 12.6569 1 11 1C10.1618 1 9.40394 1.34373 8.8596 1.89793C8.04926 1.33197 7.0634 1 6 1C3.23858 1 1 3.23858 1 6C1 7.0634 1.33197 8.04926 1.89793 8.8596C1.34373 9.40394 1 10.1618 1 11C1 12.6569 2.34315 14 4 14C5.65685 14 7 12.6569 7 11C7 10.9666 6.99946 10.9334 6.99837 10.9003C8.95882 10.503 10.503 8.95882 10.9003 6.99837C10.9334 6.99946 10.9666 7 11 7Z" fill="#F8312F"/>
<path d="M21 7C19.3431 7 18 5.65685 18 4C18 2.34315 19.3431 1 21 1C21.8382 1 22.5961 1.34373 23.1404 1.89793C23.9507 1.33197 24.9366 1 26 1C28.7614 1 31 3.23858 31 6C31 7.0634 30.668 8.04926 30.1021 8.8596C30.6563 9.40394 31 10.1618 31 11C31 12.6569 29.6569 14 28 14C26.3431 14 25 12.6569 25 11C25 10.9666 25.0005 10.9334 25.0016 10.9003C23.0412 10.503 21.497 8.95882 21.0997 6.99837C21.0666 6.99946 21.0334 7 21 7Z" fill="#F8312F"/>
<path d="M15.9989 29.9978C25.3333 29.9978 29.9978 23.7303 29.9978 15.9989C29.9978 8.26751 25.3333 2 15.9989 2C6.66443 2 2 8.26751 2 15.9989C2 23.7303 6.66443 29.9978 15.9989 29.9978Z" fill="white"/>
<path d="M24.2615 17.8595C24.7108 18.061 25 18.5076 25 19C25 21.4984 23.9517 23.5385 22.259 24.9305C20.5896 26.3033 18.3561 27 16 27C13.6439 27 11.4104 26.3033 9.74103 24.9305C8.04835 23.5385 7 21.4984 7 19C7 18.5317 7.26178 18.1027 7.67824 17.8884C8.09278 17.6752 8.59134 17.7105 8.97166 17.9794L8.98154 17.9861C8.99352 17.9942 9.01586 18.009 9.04842 18.0297C9.11358 18.071 9.21952 18.1355 9.36508 18.2156C9.65632 18.376 10.1052 18.5987 10.7027 18.8242C11.8962 19.2747 13.6838 19.7372 15.9989 19.7374C18.6108 19.7325 20.3916 19.264 21.4868 18.8284C22.0362 18.61 22.4183 18.3978 22.6505 18.2515C22.7667 18.1783 22.8458 18.1213 22.8897 18.0881C22.9117 18.0715 22.9249 18.0607 22.9296 18.0569C22.9298 18.0567 22.93 18.0566 22.9301 18.0565C23.2973 17.7374 23.8168 17.66 24.2615 17.8595ZM22.008 21.3034C20.622 21.7991 18.6518 22.2326 16.0023 22.2374L16 22.2374C13.4244 22.2374 11.383 21.7373 9.94958 21.2115C10.2675 21.92 10.7413 22.5162 11.329 22.9996C12.4746 23.9417 14.1161 24.5 16 24.5C17.8839 24.5 19.5254 23.9417 20.671 22.9996C21.2331 22.5373 21.691 21.9717 22.008 21.3034Z" fill="#F70A8D"/>
<path d="M16 18C16.9665 18 17.75 17.2165 17.75 16.25C17.75 15.2835 16.9665 14.5 16 14.5C15.0335 14.5 14.25 15.2835 14.25 16.25C14.25 17.2165 15.0335 18 16 18Z" fill="#F8312F"/>
<path d="M15 12C15 14.7614 12.7614 17 10 17C7.23858 17 5 14.7614 5 12C5 9.23858 7.23858 7 10 7C12.7614 7 15 9.23858 15 12Z" fill="#0074BA"/>
<path d="M27 12C27 14.7614 24.7614 17 22 17C19.2386 17 17 14.7614 17 12C17 9.23858 19.2386 7 22 7C24.7614 7 27 9.23858 27 12Z" fill="#0074BA"/>
<path d="M15 12.25C15 14.3211 13.3211 16 11.25 16C9.17893 16 7.5 14.3211 7.5 12.25C7.5 10.1789 9.17893 8.5 11.25 8.5C13.3211 8.5 15 10.1789 15 12.25Z" fill="white"/>
<path d="M24.5 12.25C24.5 14.3211 22.8211 16 20.75 16C18.6789 16 17 14.3211 17 12.25C17 10.1789 18.6789 8.5 20.75 8.5C22.8211 8.5 24.5 10.1789 24.5 12.25Z" fill="white"/>
<path d="M14.5 12.25C14.5 13.4926 13.4926 14.5 12.25 14.5C11.0074 14.5 10 13.4926 10 12.25C10 11.0074 11.0074 10 12.25 10C13.4926 10 14.5 11.0074 14.5 12.25Z" fill="#402A32"/>
<path d="M22 12.25C22 13.4926 20.9926 14.5 19.75 14.5C18.5074 14.5 17.5 13.4926 17.5 12.25C17.5 11.0074 18.5074 10 19.75 10C20.9926 10 22 11.0074 22 12.25Z" fill="#402A32"/>
</svg>

<svg xmlns="http://www.w3.org/2000/svg" width="32" height="32" fill="none"><path fill="#F7A7B8" d="M15.999 1C11.095 1 7.313 2.654 4.763 5.423 2.226 8.178 1 11.938 1 15.999c0 4.061 1.226 7.82 3.763 10.576 2.55 2.769 6.332 4.423 11.236 4.423 4.904 0 8.686-1.654 11.235-4.423 2.537-2.755 3.764-6.515 3.764-10.576 0-4.061-1.227-7.821-3.764-10.576C24.684 2.654 20.903 1 16 1Z"/><path fill="#F8312F" d="M11 7a3 3 0 1 0-2.14-5.102A5 5 0 0 0 1.898 8.86a3 3 0 1 0 5.1 2.04A5.006 5.006 0 0 0 10.9 6.998L11 7ZM21 7a3 3 0 1 1 2.14-5.102 5 5 0 0 1 6.962 6.962 3 3 0 1 1-5.1 2.04A5.006 5.006 0 0 1 21.1 6.998 3.028 3.028 0 0 1 21 7Z"/><path fill="#fff" d="M15.999 29.998c9.334 0 13.999-6.268 13.999-14 0-7.73-4.665-13.998-14-13.998C6.665 2 2 8.268 2 15.999c0 7.731 4.664 13.999 13.999 13.999Z"/><path fill="#F70A8D" d="M24.262 17.86c.449.201.738.648.738 1.14 0 2.498-1.048 4.538-2.741 5.93C20.589 26.303 18.356 27 16 27c-2.356 0-4.59-.697-6.259-2.07C8.048 23.538 7 21.498 7 19a1.25 1.25 0 0 1 1.972-1.02l.01.006.066.044a6 6 0 0 0 .317.186c.291.16.74.383 1.338.608 1.193.45 2.98.913 5.296.913 2.612-.004 4.393-.473 5.488-.909a7.14 7.14 0 0 0 1.164-.576c.116-.074.195-.13.239-.164l.04-.031a1.25 1.25 0 0 1 1.332-.197Zm-2.254 3.443c-1.386.496-3.356.93-6.006.934H16c-2.576 0-4.617-.5-6.05-1.025A4.908 4.908 0 0 0 11.329 23c1.146.942 2.787 1.5 4.671 1.5 1.884 0 3.525-.558 4.671-1.5a4.919 4.919 0 0 0 1.337-1.697Z"/><path fill="#F8312F" d="M16 18a1.75 1.75 0 1 0 0-3.5 1.75 1.75 0 0 0 0 3.5Z"/><path fill="#0074BA" d="M15 12a5 5 0 1 1-10 0 5 5 0 0 1 10 0ZM27 12a5 5 0 1 1-10 0 5 5 0 0 1 10 0Z"/><path fill="#fff" d="M15 12.25a3.75 3.75 0 1 1-7.5 0 3.75 3.75 0 0 1 7.5 0ZM24.5 12.25a3.75 3.75 0 1 1-7.5 0 3.75 3.75 0 0 1 7.5 0Z"/><path fill="#402A32" d="M14.5 12.25a2.25 2.25 0 1 1-4.5 0 2.25 2.25 0 0 1 4.5 0ZM22 12.25a2.25 2.25 0 1 1-4.5 0 2.25 2.25 0 0 1 4.5 0Z"/></svg>
